papirus/16x16/apps/gmail-offline.svg

<?xml version="1.0" encoding="UTF-8" standalone="no"?>
<svg
   xmlns:dc="http://purl.org/dc/elements/1.1/"
   xmlns:cc="http://creativecommons.org/ns#"
   xmlns:rdf="http://www.w3.org/1999/02/22-rdf-syntax-ns#"
   xmlns:svg="http://www.w3.org/2000/svg"
   xmlns="http://www.w3.org/2000/svg"
   xmlns:sodipodi="http://sodipodi.sourceforge.net/DTD/sodipodi-0.dtd"
   xmlns:inkscape="http://www.inkscape.org/namespaces/inkscape"
   width="16"
   height="16"
   viewBox="0 0 16 16"
   version="1.1"
   preserveAspectRatio="xMidYMid"
   id="svg2"
   inkscape:version="0.91 r13725"
   sodipodi:docname="gmail-offline.svg">
  <metadata
     id="metadata33">
    <rdf:RDF>
      <cc:Work
         rdf:about="">
        <dc:format>image/svg+xml</dc:format>
        <dc:type
           rdf:resource="http://purl.org/dc/dcmitype/StillImage" />
        <dc:title></dc:title>
      </cc:Work>
    </rdf:RDF>
  </metadata>
  <sodipodi:namedview
     pagecolor="#ffffff"
     bordercolor="#666666"
     borderopacity="1"
     objecttolerance="10"
     gridtolerance="10"
     guidetolerance="10"
     inkscape:pageopacity="0"
     inkscape:pageshadow="2"
     inkscape:window-width="1600"
     inkscape:window-height="849"
     id="namedview31"
     showgrid="false"
     inkscape:zoom="22.84"
     inkscape:cx="0.25142046"
     inkscape:cy="7.5472121"
     inkscape:window-x="0"
     inkscape:window-y="30"
     inkscape:window-maximized="1"
     inkscape:current-layer="svg2" />
  <defs
     id="defs4">
    <linearGradient
       x1="1.3210427"
       y1="127.76156"
       x2="211.76385"
       y2="127.76156"
       id="linearGradient-1"
       gradientTransform="matrix(0.07554141,0,0,0.05145101,-0.01351236,2.0000068)"
       gradientUnits="userSpaceOnUse">
      <stop
         stop-color="#000000"
         stop-opacity="0.1"
         offset="0%"
         id="stop7" />
      <stop
         stop-color="#000000"
         stop-opacity="0.2"
         offset="100%"
         id="stop9" />
    </linearGradient>
  </defs>
  <path
     style="fill:#e3e3e3"
     inkscape:connector-curvature="0"
     id="path13"
     d="m 15,14.000007 -13.9999999,0 C 0.45714295,14.000007 9.7142858e-8,13.561328 9.7142858e-8,13.00944 l 0,-10.0188671 C 9.7142858e-8,2.4528369 0.44285724,2.0000069 1.0000001,2.0000069 l 13.9999999,0 c 0.542857,0 1,0.4386792 1,0.990566 L 16,13.00944 c 0,0.551888 -0.442857,0.990567 -1,0.990567 l 0,0 z" />
  <path
     style="fill:#4f8cf6;fill-opacity:1"
     d="M 14.659598,2.0000085 C 14.180867,2.1365778 13.989087,2.5497423 14,2.9988925 l 0,10.9866065 0,0.01451 0.979911,0 C 15.556549,14.000009 16,13.554122 16,13.015634 L 16,3.8560353 16,3.6417496 16,2.9910799 C 16,2.4391931 15.542857,2.0000085 15,2.0000085 Z"
     id="path21"
     inkscape:connector-curvature="0"
     sodipodi:nodetypes="ccccssccssc" />
  <path
     style="opacity:0.1;fill:#231f20"
     inkscape:connector-curvature="0"
     id="path15"
     d="M 1.9991161,13.985939 8.8079881,8.610035 8.1063111,8.3130179 1.8564713,4.6166542 1.8422073,13.774919 Z"
     sodipodi:nodetypes="cccccc" />
  <path
     style="fill:#4f8cf6;fill-opacity:1"
     d="m 0.9905172,2.0464964 c -0.48357609,0 -0.88066983,0.3446645 -0.97278957,0.789341 -7.258e-5,3.504e-4 7.223e-5,7.627e-4 0,0.00111 C 3.8365e-4,2.9683284 0,3.0693027 0,3.0693027 l 0,9.9356903 c 0,0.546526 0.43938817,1.001226 0.99162496,0.995015 L 2,14.000008 2,3.0693027 C 2,3.0027387 1.99314,2.9421165 1.980058,2.8880878 1.9140608,2.6037472 1.8541513,2.2831984 1.5101509,2.0464964 Z"
     id="path17"
     inkscape:connector-curvature="0"
     sodipodi:nodetypes="scccsscsccs" />
  <path
     inkscape:connector-curvature="0"
     style="fill:url(#linearGradient-1)"
     id="path25"
     d="M 11,14.000008 0,3 l 1.1476037,0.5067567 6.8853855,5.4006365 7.9453138,-5.745881 0,9.8537348 c 0,0.534584 -0.442198,0.984761 -0.998513,0.984761 z"
     sodipodi:nodetypes="cccccssc" />
  <path
     inkscape:connector-curvature="0"
     style="color:#000000;font-style:normal;font-variant:normal;font-weight:normal;font-stretch:normal;font-size:medium;line-height:normal;font-family:sans-serif;text-indent:0;text-align:start;text-decoration:none;text-decoration-line:none;text-decoration-style:solid;text-decoration-color:#000000;letter-spacing:normal;word-spacing:normal;text-transform:none;direction:ltr;block-progression:tb;writing-mode:lr-tb;baseline-shift:baseline;text-anchor:start;white-space:normal;clip-rule:nonzero;display:inline;overflow:visible;visibility:visible;opacity:1;isolation:auto;mix-blend-mode:normal;color-interpolation:sRGB;color-interpolation-filters:linearRGB;solid-color:#000000;solid-opacity:1;fill:#4f8cf6;fill-opacity:1;fill-rule:evenodd;stroke:none;stroke-width:2;stroke-linecap:round;stroke-linejoin:round;stroke-miterlimit:4;stroke-dasharray:none;stroke-dashoffset:0;stroke-opacity:1;color-rendering:auto;image-rendering:auto;shape-rendering:auto;text-rendering:auto;enable-background:accumulate"
     d="M 1,2 C 0.44285714,2 0,2.4524984 0,2.9902344 L 0,3.25 7.4003906,8.8007812 a 1.0001,1.0001 0 0 0 1.1992188,0 L 16,3.25 16,2.9902344 C 16,2.4383476 15.542857,2 15,2 L 14.332031,2 8,6.75 1.6679688,2 1,2 Z"
     id="path4361" />
</svg>

<?xml version="1.0" encoding="UTF-8" standalone="no"?>
<svg id="svg2" xmlns:rdf="http://www.w3.org/1999/02/22-rdf-syntax-ns#" xmlns="http://www.w3.org/2000/svg" viewBox="0 0 16 16" width="16" version="1.1" preserveAspectRatio="xMidYMid" xmlns:cc="http://creativecommons.org/ns#" height="16" xmlns:dc="http://purl.org/dc/elements/1.1/">
 <metadata id="metadata33">
  <rdf:RDF>
   <cc:Work rdf:about="">
    <dc:format>image/svg+xml</dc:format>
    <dc:type rdf:resource="http://purl.org/dc/dcmitype/StillImage"/>
    <dc:title/>
   </cc:Work>
  </rdf:RDF>
 </metadata>
 <path id="path13" fill="#ccc" d="m15 14h-14c-0.54286 0-1-0.439-1-0.991v-10.019c9.7143e-8 -0.5372 0.44286-0.99 1-0.99h14c0.54286 0 1 0.43868 1 0.99057v10.018c0 0.55189-0.44286 0.99057-1 0.99057z"/>
 <path id="path21" fill="#4f8cf6" d="m14.66 2c-0.479 0.1366-0.671 0.5497-0.66 0.9989v10.987 0.01451h0.97991c0.577-0.001 1.02-0.447 1.02-0.985v-9.16-0.2143-0.6506c0-0.5519-0.457-0.9911-1-0.9911z"/>
 <path id="path17" fill="#4f8cf6" d="m0.99052 2.0465c-0.48358 0-0.88067 0.34466-0.97279 0.78934-0.00007258 0.0003504 0.00007223 0.0007627 0 0.00111-0.017346 0.1313-0.01773 0.2323-0.01773 0.2323v9.9357c0 0.54653 0.43939 1.0012 0.99162 0.99502h1.0084v-10.931c0-0.0663-0.0069-0.1269-0.0199-0.1809-0.066-0.2844-0.1259-0.6049-0.4699-0.8416z"/>
 <path id="path4361" style="color-rendering:auto;text-decoration-color:#000000;color:#000000;isolation:auto;mix-blend-mode:normal;shape-rendering:auto;solid-color:#000000;block-progression:tb;text-decoration-line:none;text-decoration-style:solid;image-rendering:auto;white-space:normal;text-indent:0;text-transform:none" d="m1 2c-0.55714 0-1 0.4525-1 0.9902v0.2598l7.4004 5.5508a1.0001 1.0001 0 0 0 1.1992 0l7.4004-5.5508v-0.2598c0-0.5519-0.457-0.9902-1-0.9902h-0.668l-6.332 4.75-6.332-4.75h-0.668z" fill-rule="evenodd" fill="#4f8cf6"/>
</svg>
